src/Assets/coke.svg

<?xml version="1.0" encoding="UTF-8" standalone="no" ?>
<!DOCTYPE svg PUBLIC "-//W3C//DTD SVG 1.1//EN" "http://www.w3.org/Graphics/SVG/1.1/DTD/svg11.dtd">
<svg xmlns="http://www.w3.org/2000/svg" xmlns:xlink="http://www.w3.org/1999/xlink" version="1.1" width="261" height="402" viewBox="0 0 261 402" xml:space="preserve">
<desc>Created with Fabric.js 3.6.3</desc>
<defs>
</defs>
<g transform="matrix(1 0 0 1 240 228)"  >
<g style=""   >
		<g transform="matrix(0.13 0 0 -0.13 -53.41 -101.76)"  >
<path style="stroke: none; stroke-width: 1; stroke-dasharray: none; stroke-linecap: butt; stroke-dashoffset: 0; stroke-linejoin: miter; stroke-miterlimit: 4; fill: rgb(72,100,111); fill-rule: nonzero; opacity: 1;"  transform=" translate(-2102.66, -2962.42)" d="M 1615.75 2018.78 L 1607.17 3470.45 L 2518.83 3906.0699999999997 L 2598.15 3740.0499999999997 L 1791.8600000000001 3354.7799999999997 L 1799.7500000000002 2019.8799999999997 L 1615.7500000000002 2018.7799999999997" stroke-linecap="round" />
</g>
		<g transform="matrix(0.13 0 0 -0.13 -53.42 -101.76)"  >
<path style="stroke: none; stroke-width: 1; stroke-dasharray: none; stroke-linecap: butt; stroke-dashoffset: 0; stroke-linejoin: miter; stroke-miterlimit: 4; fill: rgb(9,16,25); fill-rule: nonzero; opacity: 1;"  transform=" translate(-2102.67, -2962.42)" d="M 1615.75 2018.78 L 1645.75 2018.96 L 1637.28 3451.59 L 2504.69 3866.07 L 2558.15 3754.1800000000003 L 1778.93 3381.8500000000004 C 1768.48 3376.8600000000006 1761.79 3366.1700000000005 1761.8600000000001 3354.6000000000004 L 1769.5700000000002 2049.7000000000003 L 1615.5700000000002 2048.78 L 1615.7500000000002 2018.7800000000002 L 1645.7500000000002 2018.9600000000003 L 1615.7500000000002 2018.7800000000002 L 1615.9300000000003 1988.7800000000002 L 1799.9300000000003 1989.88 C 1816.5000000000002 1989.97 1829.8500000000004 2003.49 1829.7500000000002 2020.0500000000002 L 1821.9700000000003 3335.92 L 2611.09 3712.98 C 2626.04 3720.12 2632.3700000000003 3738.03 2625.2200000000003 3752.98 L 2545.9 3919.01 C 2542.4900000000002 3926.13 2536.27 3931.73 2528.82 3934.36 C 2521.3700000000003 3936.9900000000002 2513.02 3936.55 2505.8900000000003 3933.1400000000003 L 1594.2300000000005 3497.5200000000004 C 1583.7900000000004 3492.5300000000007 1577.1000000000004 3481.8500000000004 1577.1700000000005 3470.2700000000004 L 1585.7500000000005 2018.6000000000004 C 1585.8000000000004 2010.7100000000003 1589.0500000000004 2003.0000000000005 1594.6700000000005 1997.4400000000003 C 1600.2800000000004 1991.8900000000003 1608.0300000000004 1988.7400000000002 1615.9300000000005 1988.7800000000002 L 1615.7500000000005 2018.7800000000002" stroke-linecap="round" />
</g>
		<g transform="matrix(0.13 0 0 -0.13 -106.52 34.75)"  >
<path style="stroke: none; stroke-width: 1; stroke-dasharray: none; stroke-linecap: butt; stroke-dashoffset: 0; stroke-linejoin: miter; stroke-miterlimit: 4; fill: rgb(236,60,38); fill-rule: nonzero; opacity: 1;"  transform=" translate(-1704.32, -1938.61)" d="M 2379.21 898.609 L 1029.42 898.609 L 859.746 2978.61 L 2548.9 2978.61 L 2379.21 898.609" stroke-linecap="round" />
</g>
		<g transform="matrix(0.13 0 0 -0.13 -106.52 34.75)"  >
<path style="stroke: none; stroke-width: 1; stroke-dasharray: none; stroke-linecap: butt; stroke-dashoffset: 0; stroke-linejoin: miter; stroke-miterlimit: 4; fill: rgb(9,16,25); fill-rule: nonzero; opacity: 1;"  transform=" translate(-1704.32, -1938.61)" d="M 2379.21 898.609 L 2379.21 928.609 L 1057.08 928.609 L 892.293 2948.61 L 2516.35 2948.61 L 2349.31 901.0510000000002 L 2379.21 898.6090000000002 L 2379.21 928.6090000000002 L 2379.21 898.6090000000002 L 2409.11 896.1720000000001 L 2578.8 2976.17 C 2579.48 2984.4900000000002 2576.6200000000003 2992.8 2570.96 2998.94 C 2565.29 3005.08 2557.25 3008.61 2548.9 3008.61 L 859.746 3008.61 C 851.395 3008.61 843.348 3005.08 837.688 2998.94 C 832.027 2992.8 829.168 2984.4900000000002 829.848 2976.17 L 999.523 896.172 C 1000.8000000000001 880.559 1013.76 868.609 1029.42 868.609 L 2379.21 868.609 C 2394.87 868.609 2407.84 880.5590000000001 2409.11 896.172 L 2379.21 898.609" stroke-linecap="round" />
</g>
		<g transform="matrix(0.13 0 0 -0.13 -109.1 -105.93)"  >
<path style="stroke: none; stroke-width: 1; stroke-dasharray: none; stroke-linecap: butt; stroke-dashoffset: 0; stroke-linejoin: miter; stroke-miterlimit: 4; fill: rgb(252,252,252); fill-rule: nonzero; opacity: 1;"  transform=" translate(-1685, -2993.61)" d="M 710 2858.61 L 2660 2858.61 L 2660 3128.61 L 710 3128.61 Z" stroke-linecap="round" />
</g>
		<g transform="matrix(0.13 0 0 -0.13 -109.1 -105.92)"  >
<path style="stroke: none; stroke-width: 1; stroke-dasharray: none; stroke-linecap: butt; stroke-dashoffset: 0; stroke-linejoin: miter; stroke-miterlimit: 4; fill: rgb(9,16,25); fill-rule: nonzero; opacity: 1;"  transform=" translate(-1685, -2993.61)" d="M 2660 2858.61 L 2660 2888.61 L 740 2888.61 L 740 3098.61 L 2630 3098.61 L 2630 2858.61 L 2660 2858.61 L 2660 2888.61 L 2660 2858.61 L 2690 2858.61 L 2690 3128.61 C 2690 3136.51 2686.8 3144.23 2681.21 3149.82 C 2675.63 3155.4100000000003 2667.9 3158.61 2660 3158.61 L 710 3158.61 C 702.102 3158.61 694.375 3155.4100000000003 688.785 3149.82 C 683.199 3144.23 680 3136.51 680 3128.61 L 680 2858.61 C 680 2850.71 683.199 2842.98 688.785 2837.3900000000003 C 694.375 2831.8100000000004 702.102 2828.61 710 2828.61 L 2660 2828.61 C 2667.9 2828.61 2675.63 2831.81 2681.21 2837.3900000000003 C 2686.8 2842.9800000000005 2690 2850.7100000000005 2690 2858.61 L 2660 2858.61" stroke-linecap="round" />
</g>
		<g transform="matrix(0.13 0 0 -0.13 -106.53 69.53)"  >
<path style="stroke: none; stroke-width: 1; stroke-dasharray: none; stroke-linecap: butt; stroke-dashoffset: 0; stroke-linejoin: miter; stroke-miterlimit: 4; fill: rgb(244,173,25); fill-rule: nonzero; opacity: 1;"  transform=" translate(-1704.31, -1677.74)" d="M 2448.53 1758.61 L 2020 1758.61 L 2020 1848.4099999999999 C 2020 2027.7499999999998 1874.33 2173.13 1695 2173.13 C 1515.66 2173.13 1370 2027.75 1370 1848.41 L 1370 1758.6100000000001 L 960.094 1758.6100000000001 L 972.8670000000001 1598.6100000000001 L 1370 1598.6100000000001 L 1370 1507.0500000000002 C 1370 1327.7100000000003 1515.66 1182.3400000000001 1695 1182.3400000000001 C 1874.33 1182.3400000000001 2020 1327.71 2020 1507.0500000000002 L 2020 1598.6100000000001 L 2435.76 1598.6100000000001 L 2448.53 1758.6100000000001" stroke-linecap="round" />
</g>
		<g transform="matrix(0.13 0 0 -0.13 -106.53 69.53)"  >
<path style="stroke: none; stroke-width: 1; stroke-dasharray: none; stroke-linecap: butt; stroke-dashoffset: 0; stroke-linejoin: miter; stroke-miterlimit: 4; fill: rgb(9,16,25); fill-rule: nonzero; opacity: 1;"  transform=" translate(-1704.31, -1677.74)" d="M 2448.53 1758.61 L 2448.53 1778.61 L 2040 1778.61 L 2040 1848.4099999999999 C 2039.98 2038.83 1885.37 2193.1099999999997 1695 2193.13 C 1504.62 2193.11 1350.02 2038.8300000000002 1350 1848.41 L 1350 1778.6100000000001 L 960.094 1778.6100000000001 C 954.523 1778.6100000000001 949.176 1776.2700000000002 945.398 1772.17 C 941.621 1768.0800000000002 939.715 1762.5700000000002 940.1560000000001 1757.02 L 952.9300000000001 1597.02 C 953.7620000000001 1586.61 962.426 1578.61 972.8670000000001 1578.61 L 1350 1578.61 L 1350 1507.05 C 1350.02 1316.6299999999999 1504.62 1162.35 1695 1162.34 C 1885.37 1162.35 2039.98 1316.6299999999999 2040 1507.05 L 2040 1578.61 L 2435.76 1578.61 C 2446.2000000000003 1578.61 2454.8700000000003 1586.61 2455.7000000000003 1597.02 L 2468.4700000000003 1757.02 C 2468.9100000000003 1762.57 2467.01 1768.08 2463.2300000000005 1772.17 C 2459.4500000000003 1776.26 2454.1000000000004 1778.6100000000001 2448.5300000000007 1778.6100000000001 L 2448.5300000000007 1758.6100000000001 L 2428.600000000001 1760.2 L 2417.290000000001 1618.6100000000001 L 2020 1618.6100000000001 C 2014.73 1618.6100000000001 2009.58 1616.47 2005.86 1612.7500000000002 C 2002.1299999999999 1609.0200000000002 2000 1603.8700000000001 2000 1598.6100000000001 L 2000 1507.0500000000002 C 1999.99 1422.8500000000001 1965.86 1346.8000000000002 1910.61 1291.5900000000001 C 1855.34 1236.41 1779.1999999999998 1202.3500000000001 1695 1202.3400000000001 C 1610.79 1202.3500000000001 1534.66 1236.41 1479.38 1291.5900000000001 C 1424.14 1346.8000000000002 1390.0100000000002 1422.8500000000001 1390 1507.0500000000002 L 1390 1598.6100000000001 C 1390 1603.8700000000001 1387.87 1609.0200000000002 1384.14 1612.7500000000002 C 1380.42 1616.4700000000003 1375.2700000000002 1618.6100000000001 1370 1618.6100000000001 L 991.332 1618.6100000000001 L 981.754 1738.6100000000001 L 1370 1738.6100000000001 C 1375.27 1738.6100000000001 1380.42 1740.7400000000002 1384.14 1744.46 C 1387.8700000000001 1748.19 1390 1753.3400000000001 1390 1758.6100000000001 L 1390 1848.41 C 1390.01 1932.6100000000001 1424.14 2008.66 1479.38 2063.87 C 1534.66 2119.0499999999997 1610.7900000000002 2153.12 1695 2153.13 C 1779.2 2153.12 1855.34 2119.05 1910.6100000000001 2063.87 C 1965.8600000000001 2008.6599999999999 1999.9900000000002 1932.61 2000.0000000000002 1848.4099999999999 L 2000.0000000000002 1758.61 C 2000.0000000000002 1753.34 2002.1300000000003 1748.1899999999998 2005.8600000000001 1744.4599999999998 C 2009.5800000000002 1740.7399999999998 2014.73 1738.61 2020.0000000000002 1738.61 L 2448.53 1738.61 L 2448.53 1758.61 L 2428.6000000000004 1760.1999999999998 L 2448.53 1758.61" stroke-linecap="round" />
</g>
		<g transform="matrix(0.13 0 0 -0.13 -178.84 -55.11)"  >
<path style="stroke: none; stroke-width: 1; stroke-dasharray: none; stroke-linecap: butt; stroke-dashoffset: 0; stroke-linejoin: miter; stroke-miterlimit: 4; fill: rgb(244,110,70); fill-rule: nonzero; opacity: 1;"  transform=" translate(-1162.01, -2612.48)" d="M 1162.01 2580.45 C 1144.31 2580.45 1129.97 2594.79 1129.97 2612.49 C 1129.97 2630.18 1144.31 2644.52 1162.01 2644.52 C 1179.71 2644.52 1194.04 2630.18 1194.04 2612.49 C 1194.04 2594.79 1179.71 2580.45 1162.01 2580.45" stroke-linecap="round" />
</g>
		<g transform="matrix(0.13 0 0 -0.13 -172.33 2.21)"  >
<path style="stroke: none; stroke-width: 1; stroke-dasharray: none; stroke-linecap: butt; stroke-dashoffset: 0; stroke-linejoin: miter; stroke-miterlimit: 4; fill: rgb(244,110,70); fill-rule: nonzero; opacity: 1;"  transform=" translate(-1210.85, -2182.61)" d="M 1210.85 2150.57 C 1193.1499999999999 2150.57 1178.81 2164.9100000000003 1178.81 2182.61 C 1178.81 2200.31 1193.1499999999999 2214.65 1210.85 2214.65 C 1228.55 2214.65 1242.8899999999999 2200.31 1242.8899999999999 2182.61 C 1242.8899999999999 2164.9100000000003 1228.55 2150.57 1210.85 2150.57" stroke-linecap="round" />
</g>
		<g transform="matrix(0.13 0 0 -0.13 -165.8 140.29)"  >
<path style="stroke: none; stroke-width: 1; stroke-dasharray: none; stroke-linecap: butt; stroke-dashoffset: 0; stroke-linejoin: miter; stroke-miterlimit: 4; fill: rgb(244,110,70); fill-rule: nonzero; opacity: 1;"  transform=" translate(-1259.7, -1147.01)" d="M 1259.7 1114.97 C 1242.01 1114.97 1227.67 1129.31 1227.67 1147.01 C 1227.67 1164.71 1242.01 1179.05 1259.7 1179.05 C 1277.4 1179.05 1291.74 1164.71 1291.74 1147.01 C 1291.74 1129.31 1277.4 1114.97 1259.7 1114.97" stroke-linecap="round" />
</g>
		<g transform="matrix(0.13 0 0 -0.13 -107.77 -106.59)"  >
<path style="stroke: none; stroke-width: 1; stroke-dasharray: none; stroke-linecap: butt; stroke-dashoffset: 0; stroke-linejoin: miter; stroke-miterlimit: 4; fill: rgb(236,60,38); fill-rule: nonzero; opacity: 1;"  transform=" translate(-1695, -2998.61)" d="M 730 2998.61 L 2660 2998.61 L 730 2998.61" stroke-linecap="round" />
</g>
		<g transform="matrix(0.13 0 0 -0.13 -107.77 -106.58)"  >
<path style="stroke: none; stroke-width: 1; stroke-dasharray: none; stroke-linecap: butt; stroke-dashoffset: 0; stroke-linejoin: miter; stroke-miterlimit: 4; fill: rgb(9,16,25); fill-rule: nonzero; opacity: 1;"  transform=" translate(-1695, -2998.61)" d="M 730 2968.61 L 2660 2968.61 C 2676.57 2968.61 2690 2982.04 2690 2998.61 C 2690 3015.1800000000003 2676.57 3028.61 2660 3028.61 L 730 3028.61 C 713.43 3028.61 700 3015.1800000000003 700 2998.61 C 700 2982.04 713.43 2968.61 730 2968.61" stroke-linecap="round" />
</g>
		<g transform="matrix(0.13 0 0 -0.13 -107.11 69.41)"  >
<path style="stroke: none; stroke-width: 1; stroke-dasharray: none; stroke-linecap: butt; stroke-dashoffset: 0; stroke-linejoin: miter; stroke-miterlimit: 4; fill: rgb(236,60,38); fill-rule: nonzero; opacity: 1;"  transform=" translate(-1700, -1678.61)" d="M 980 1678.61 L 2420 1678.61 L 980 1678.61" stroke-linecap="round" />
</g>
		<g transform="matrix(0.13 0 0 -0.13 -107.11 69.42)"  >
<path style="stroke: none; stroke-width: 1; stroke-dasharray: none; stroke-linecap: butt; stroke-dashoffset: 0; stroke-linejoin: miter; stroke-miterlimit: 4; fill: rgb(9,16,25); fill-rule: nonzero; opacity: 1;"  transform=" translate(-1700, -1678.61)" d="M 980 1658.61 L 2420 1658.61 C 2431.05 1658.61 2440 1667.56 2440 1678.61 C 2440 1689.6499999999999 2431.05 1698.61 2420 1698.61 L 980 1698.61 C 968.953 1698.61 960 1689.6499999999999 960 1678.61 C 960 1667.56 968.953 1658.61 980 1658.61" stroke-linecap="round" />
</g>
		<g transform="matrix(0.13 0 0 -0.13 -107.11 70.08)"  >
<path style="stroke: none; stroke-width: 1; stroke-dasharray: none; stroke-linecap: butt; stroke-dashoffset: 0; stroke-linejoin: miter; stroke-miterlimit: 4; fill: rgb(236,60,38); fill-rule: nonzero; opacity: 1;"  transform=" translate(-1700, -1673.61)" d="M 1700 1178.61 L 1700 2168.6099999999997 L 1700 1178.6099999999997" stroke-linecap="round" />
</g>
		<g transform="matrix(0.13 0 0 -0.13 -107.1 70.08)"  >
<path style="stroke: none; stroke-width: 1; stroke-dasharray: none; stroke-linecap: butt; stroke-dashoffset: 0; stroke-linejoin: miter; stroke-miterlimit: 4; fill: rgb(9,16,25); fill-rule: nonzero; opacity: 1;"  transform=" translate(-1700, -1673.61)" d="M 1720 1178.61 L 1720 2168.6099999999997 C 1720 2179.6499999999996 1711.05 2188.6099999999997 1700 2188.6099999999997 C 1688.95 2188.6099999999997 1680 2179.6499999999996 1680 2168.6099999999997 L 1680 1178.6099999999997 C 1680 1167.5599999999997 1688.95 1158.6099999999997 1700 1158.6099999999997 C 1711.05 1158.6099999999997 1720 1167.5599999999997 1720 1178.6099999999997" stroke-linecap="round" />
</g>
		<g transform="matrix(0.13 0 0 -0.13 -167.96 165.15)"  >
<path style="stroke: none; stroke-width: 1; stroke-dasharray: none; stroke-linecap: butt; stroke-dashoffset: 0; stroke-linejoin: miter; stroke-miterlimit: 4; fill: rgb(6,9,10); fill-rule: nonzero; opacity: 1;"  transform=" translate(-1243.62, -960.52)" d="M 1465.9 908.609 L 1029.42 908.609 L 1021.33 1007.2800000000001 C 1030.98 1008.9200000000001 1040.6200000000001 1010.6300000000001 1050.24 1012.4300000000001 L 1057.08 928.609 L 1453.98 928.609 C 1457.2 921.469 1461.22 914.7620000000001 1465.9 908.609" stroke-linecap="round" />
</g>
		<g transform="matrix(0.13 0 0 -0.13 6.84 -99.15)"  >
<path style="stroke: none; stroke-width: 1; stroke-dasharray: none; stroke-linecap: butt; stroke-dashoffset: 0; stroke-linejoin: miter; stroke-miterlimit: 4; fill: rgb(248,248,247); fill-rule: nonzero; opacity: 1;"  transform=" translate(-2554.63, -2942.77)" d="M 2630 2916.92 C 2582.28 2924.41 2533.33 2929.25 2483.47 2931.38 C 2482.7099999999996 2938.54 2481.89 2945.8900000000003 2481.0499999999997 2953 C 2480.7999999999997 2955.07 2480.5699999999997 2957.73 2480.31 2959.8 C 2479.97 2962.65 2479.61 2965.61 2479.25 2968.61 L 2630 2968.61 L 2630 2916.92" stroke-linecap="round" />
</g>
		<g transform="matrix(0.13 0 0 -0.13 5.45 -115.26)"  >
<path style="stroke: none; stroke-width: 1; stroke-dasharray: none; stroke-linecap: butt; stroke-dashoffset: 0; stroke-linejoin: miter; stroke-miterlimit: 4; fill: rgb(248,248,247); fill-rule: nonzero; opacity: 1;"  transform=" translate(-2544.19, -3063.61)" d="M 2630 3028.61 L 2470.8 3028.61 C 2467.11 3051.9 2462.9700000000003 3075.3 2458.3700000000003 3098.61 L 2630 3098.61 L 2630 3028.61" stroke-linecap="round" />
</g>
</g>
</g>
</svg>

<svg height="402" viewBox="0 0 261 402" width="261" xmlns="http://www.w3.org/2000/svg"><path d="m1615.75 2018.78-8.58 1451.67 911.66 435.62 79.32-166.02-806.29-385.27 7.89-1334.9z" fill="#48646f" transform="matrix(.13 0 0 -.13 -86.7558 511.3546)"/><path d="m1615.75 2018.78 30 .18-8.47 1432.63 867.41 414.48 53.46-111.89-779.22-372.33c-10.45-4.99-17.14-15.68-17.07-27.25l7.71-1304.9-154-.92.18-30 30 .18-30-.18.18-30 184 1.1c16.57.09 29.92 13.61 29.82 30.17l-7.78 1315.87 789.12 377.06c14.95 7.14 21.28 25.05 14.13 40l-79.32 166.03c-3.41 7.12-9.63 12.72-17.08 15.35s-15.8 2.19-22.93-1.22l-911.66-435.62c-10.44-4.99-17.13-15.67-17.06-27.25l8.58-1451.67c.05-7.89 3.3-15.6 8.92-21.16 5.61-5.55 13.36-8.7 21.26-8.66z" fill="#091019" transform="matrix(.13 0 0 -.13 -86.7671 511.3546)"/><path d="m2379.21 898.609h-1349.79l-169.674 2080.001h1689.154z" fill="#ec3c26" transform="matrix(.13 0 0 -.13 -88.0816 514.7693)"/><path d="m2379.21 898.609v30h-1322.13l-164.787 2020.001h1624.057l-167.04-2047.559 29.9-2.442v30-30l29.9-2.437 169.69 2079.998c.68 8.32-2.18 16.63-7.84 22.77-5.67 6.14-13.71 9.67-22.06 9.67h-1689.154c-8.351 0-16.398-3.53-22.058-9.67-5.661-6.14-8.52-14.45-7.84-22.77l169.675-2079.998c1.277-15.613 14.237-27.563 29.897-27.563h1349.79c15.66 0 28.63 11.95 29.9 27.563z" fill="#091019" transform="matrix(.13 0 0 -.13 -88.0816 514.7693)"/><path d="m710 2858.61h1950v270h-1950z" fill="#fcfcfc" transform="matrix(.13 0 0 -.13 -88.15 511.2393)"/><path d="m2660 2858.61v30h-1920v210h1890v-240h30v30-30h30v270c0 7.9-3.2 15.62-8.79 21.21-5.58 5.59-13.31 8.79-21.21 8.79h-1950c-7.898 0-15.625-3.2-21.215-8.79-5.586-5.59-8.785-13.31-8.785-21.21v-270c0-7.9 3.199-15.63 8.785-21.22 5.59-5.58 13.317-8.78 21.215-8.78h1950c7.9 0 15.63 3.2 21.21 8.78 5.59 5.59 8.79 13.32 8.79 21.22z" fill="#091019" transform="matrix(.13 0 0 -.13 -88.15 511.2493)"/><path d="m2448.53 1758.61h-428.53v89.8c0 179.34-145.67 324.72-325 324.72-179.34 0-325-145.38-325-324.72v-89.8h-409.906l12.773-160h397.133v-91.56c0-179.34 145.66-324.71 325-324.71 179.33 0 325 145.37 325 324.71v91.56h415.76z" fill="#f4ad19" transform="matrix(.13 0 0 -.13 -88.0903 515.6362)"/><path d="m2448.53 1758.61v20h-408.53v69.8c-.02 190.42-154.63 344.7-345 344.72-190.38-.02-344.98-154.3-345-344.72v-69.8h-389.906c-5.571 0-10.918-2.34-14.696-6.44-3.777-4.09-5.683-9.6-5.242-15.15l12.774-160c.832-10.41 9.496-18.41 19.937-18.41h377.133v-71.56c.02-190.42 154.62-344.7 345-344.71 190.37.01 344.98 154.29 345 344.71v71.56h395.76c10.44 0 19.11 8 19.94 18.41l12.77 160c.44 5.55-1.46 11.06-5.24 15.15s-9.13 6.44-14.7 6.44v-20l-19.93 1.59-11.31-141.59h-397.29c-5.27 0-10.42-2.14-14.14-5.86-3.73-3.73-5.86-8.88-5.86-14.14v-91.56c-.01-84.2-34.14-160.25-89.39-215.46-55.27-55.18-131.41-89.24-215.61-89.25-84.21.01-160.34 34.07-215.62 89.25-55.24 55.21-89.37 131.26-89.38 215.46v91.56c0 5.26-2.13 10.41-5.86 14.14-3.72 3.72-8.87 5.86-14.14 5.86h-378.668l-9.578 120h388.246c5.27 0 10.42 2.13 14.14 5.85 3.73 3.73 5.86 8.88 5.86 14.15v89.8c.01 84.2 34.14 160.25 89.38 215.46 55.28 55.18 131.41 89.25 215.62 89.26 84.2-.01 160.34-34.08 215.61-89.26 55.25-55.21 89.38-131.26 89.39-215.46v-89.8c0-5.27 2.13-10.42 5.86-14.15 3.72-3.72 8.87-5.85 14.14-5.85h428.53v20l-19.93 1.59z" fill="#091019" transform="matrix(.13 0 0 -.13 -88.0903 515.6362)"/><g fill="#f46e46"><path d="m1162.01 2580.45c-17.7 0-32.04 14.34-32.04 32.04 0 17.69 14.34 32.03 32.04 32.03s32.03-14.34 32.03-32.03c0-17.7-14.33-32.04-32.03-32.04" transform="matrix(.13 0 0 -.13 -89.9013 512.5124)"/><path d="m1210.85 2150.57c-17.7 0-32.04 14.34-32.04 32.04s14.34 32.04 32.04 32.04 32.04-14.34 32.04-32.04-14.34-32.04-32.04-32.04" transform="matrix(.13 0 0 -.13 -89.7405 513.9493)"/><path d="m1259.7 1114.97c-17.69 0-32.03 14.34-32.03 32.04s14.34 32.04 32.03 32.04c17.7 0 32.04-14.34 32.04-32.04s-14.34-32.04-32.04-32.04" transform="matrix(.13 0 0 -.13 -89.561 517.4013)"/></g><path d="m730 2998.61h1930z" fill="#ec3c26" transform="matrix(.13 0 0 -.13 -88.12 511.2293)"/><path d="m730 2968.61h1930c16.57 0 30 13.43 30 30s-13.43 30-30 30h-1930c-16.57 0-30-13.43-30-30s13.43-30 30-30" fill="#091019" transform="matrix(.13 0 0 -.13 -88.12 511.2393)"/><path d="m980 1678.61h1440z" fill="#ec3c26" transform="matrix(.13 0 0 -.13 -88.11 515.6293)"/><path d="m980 1658.61h1440c11.05 0 20 8.95 20 20 0 11.04-8.95 20-20 20h-1440c-11.047 0-20-8.96-20-20 0-11.05 8.953-20 20-20" fill="#091019" transform="matrix(.13 0 0 -.13 -88.11 515.6393)"/><path d="m1700 1178.61v990z" fill="#ec3c26" transform="matrix(.13 0 0 -.13 -88.11 515.6493)"/><path d="m1720 1178.61v990c0 11.04-8.95 20-20 20s-20-8.96-20-20v-990c0-11.05 8.95-20 20-20s20 8.95 20 20" fill="#091019" transform="matrix(.13 0 0 -.13 -88.1 515.6493)"/><path d="m1465.9 908.609h-436.48l-8.09 98.671c9.65 1.64 19.29 3.35 28.91 5.15l6.84-83.821h396.9c3.22-7.14 7.24-13.847 11.92-20" fill="#06090a" transform="matrix(.13 0 0 -.13 -89.6306 518.0176)"/><path d="m2630 2916.92c-47.72 7.49-96.67 12.33-146.53 14.46-.76 7.16-1.58 14.51-2.42 21.62-.25 2.07-.48 4.73-.74 6.8-.34 2.85-.7 5.81-1.06 8.81h150.75z" fill="#f8f8f7" transform="matrix(.13 0 0 -.13 -85.2619 511.4101)"/><path d="m2630 3028.61h-159.2c-3.69 23.29-7.83 46.69-12.43 70h171.63z" fill="#f8f8f7" transform="matrix(.13 0 0 -.13 -85.2947 511.0093)"/></svg>
